X: 100
T: Lord Baltimore's Rant
B: 204 Favourite Country Dances
N: Published by Straight & Skillern, London ca.1775
F: http://imslp.org/wiki/204_Favourite_Country_Dances_(Various) p.50 #100
Z: 2014 John Chambers <jc:trillian.mit.edu>
N: The dots after notes in bars 5 and 6 are probably wrong, since they give 7 16th-notes in the beat.
M: 6/8
L: 1/16
K: Bb
% - - - - - - - - - - - - - - - - - - - - - - - - -
FE |\
D2F2B2 E2G2c2 | D2F2B2 d2B2G2 |\
D2F2B2 E2G2c2 | e2c2A2 B4B,2 :|
|:\
(B3Bcde) f2d2B2 | (A3ABcd) c2A2F2 |\
D2F2B2 E2G2c2 | e2c2A2 B4B,2 :|
% - - - - - - - - - - - - - - - - - - - - - - - - -
%%begintext align
%% Set all 4 & change sides the same
%% back again Gallop down 1 Cu. up
%% again & cast off Right and
%% Left at top
%%endtext

%%sep 1 1 500
%%sep 1 1 500
